X: 127
T: A Welsh Dance
%R: hornpipe, reel
B: Urbani & Liston "A Selection of Scotch, English Irish, and Foreign Airs", Edinburgh 1800, p.50 #1
F: http://www.vwml.org/browse/browse-collections-dance-tune-books/browse-urbani1800
Z: 2014 John Chambers <jc:trillian.mit.edu>
M: C|
L: 1/8
K: G
|:\
g>fg>a f>ef>d | e>de>c d2B2 |\
c>Bc>d e>fg>B | c>Ad>d G/(G/GG2) :|\
b>ab>c' a>ga>f | gfga f2f2 |
g>fg>e ^d>BB>f | g>ee^d e2e2 |]|\
E>FG>A B>cd>e | c>BA>d B>AG2 |\
B>AB>c d>ef>g | abeg fe"Da Capo"d2 |]

%%sep 1 1 500
%%sep 1 1 500
